X:1
T:Thy Word Have I Hid in My Heart
T:Thy Word Have I Hid in My Heart
T:Ernest Orlando Sellers
T:Ernest Orlando Sellers, 1908
T:Public  Domain Courtesy of the Cyber Hymnal™
C:Ernest Orlando Sellers
Z:Public  Domain
Z:Courtesy of the Cyber Hymnal™
%%score ( 1 2 ) ( 3 4 )
L:1/8
Q:1/4=100
M:6/8
K:Eb
V:1 treble 
V:2 treble 
V:3 bass 
V:4 bass 
V:1
 B, | [B,E][B,E][B,E] [EG][EF]E | [EB]3- [EB]2 [EA] | [EG][DF][CE] [DF]2 [DF] | [EG]3- [EG] z B, | %5
w: 1.~Thy|Word is a lamp to my|feet, * A|light to my path al-|way, * To|
w: 2.~For-|ev- er, O Lord, is Thy|Word * Es-|tab- lished and fixed on|high; * Thy|
w: 3.~At|morn- ing, at noon, and at|night * I|ev- er will give Thee|praise; * For|
w: 4.~Thro’|Him whom Thy Word hath fore-|told, * The|Sav- ior and Morn- ing|Star, * Sal-|
 [B,E][B,E][B,E] [EG][EF]E | [EB]3- [EB]2 [EG] | [DF][DF][Fe] [Fd]2 [Ec] | ([DB]3 [AB]2) || %9
w: guide and to save me from|sin, * And|show me the heav’n- ly|way. *|
w: faith- ful- ness un- to all|men * A-|bid- eth for- ev- er|nigh. *|
w: Thou art my por- tion, O|Lord, * And|shall be through all my|days! *|
w: va- tion and peace have been|brought * To|those who have strayed a-|far. *|
"^Refrain" ([GB]/[EA]/) | [EG][EG][EG] [EG][EF][EG] | A3- [DA]2 [DA] | [DA][DA][DA] [DA]>[Dc][DB] | %13
w: ||||
w: Thy *|Word have I hid in my|heart, That I|* might not sin a- gainst|
w: ||||
w: ||||
 G3- [B,G]2 [EB] | [Ge][Ge][Ge] [Gd]2 [DG] | [Dc][Dc][Dc] [EB]2 E | [EF][EG][FA] [EG]>[FA][DF] | %17
w: ||||
w: Thee; That I|* might not sin, that|I might not sin, Thy|Word have I hid in my|
w: ||||
w: ||||
 E3- E z |] %18
w: |
w: heart. *|
w: |
w: |
V:2
 B, | x6 | x6 | x6 | x5 B, | x6 | x6 | x6 | x5 || x | x6 | DFE x3 | x6 | EDC x3 | x6 | x6 | x6 | %17
 E3- E x |] %18
V:3
 [E,G,] | [E,G,][E,G,][E,G,] [E,B,][E,A,][E,G,] | [E,G,]3- [E,G,]2 [E,C] | %3
 [E,B,][B,,A,][C,G,] [B,,B,]2 [B,,B,] | [E,B,]3- [E,B,] z [E,G,] | %5
 [E,G,][E,G,][E,G,] [E,B,][E,A,][E,G,] | [E,G,]3- [E,G,]2 [E,B,] | %7
 [F,B,][F,B,][F,=A,] [F,A,]2 [F,A,] | ([B,,B,]3 [B,,D]2) || (E/C/) | %10
 [E,B,][E,B,][E,B,] [E,B,][E,A,][E,B,] | [F,B,]3 [B,,B,]2 [B,,B,] | %12
 [B,,B,][B,,B,][B,,B,] [B,,B,]>[B,,B,][B,,B,] | [E,B,]3- [E,B,]2 [G,B,] | %14
 [E,B,][G,B,]B, [F,B,]2 [B,,B,] | [A,B,][A,B,][A,B,] [G,B,]2 [G,B,] | %16
 [A,C][G,C][F,C] B,>[B,,B,][B,,A,] | [E,G,]3- [E,G,] z |] %18
V:4
 x | x6 | x6 | x6 | x6 | x6 | x6 | x6 | x5 || E, | x6 | x6 | x6 | x6 | x6 | x6 | x6 | x5 |] %18

